32x32/apps/org.gabmus.gfeeds.svg

<svg xmlns="http://www.w3.org/2000/svg" width="32" height="32" version="1"><rect style="opacity:.2" width="30" height="22" x="1" y="7" rx="2" ry="2"/><path style="fill:#ff8915" d="M1 24v2c0 1.108.892 2 2 2h26c1.108 0 2-.892 2-2v-2l-2 1H3z"/><rect style="opacity:.2" width="30" height="22" x="1" y="5" rx="2" ry="2"/><rect style="fill:#f4f4f7" width="30" height="22" x="1" y="4" rx="2" ry="2"/><g style="opacity:.1"><rect width="7" height="7" x="24" y="19" rx="2" ry="2"/><path d="M28 19h3v3h-3zM24 23h3v3h-3z"/></g><rect style="fill:#ff8915" width="7" height="1" x="4" y="7" ry="0"/><path style="fill:#9c9891" d="M4 10v1h8v-1zm0 3v1h7v-1zm0 3v1h8v-1zm15 0v1h5v-1zM4 19v1h5v-1zm15 0v1h8v-1zM4 22v1h8v-1zm15 0v1h8v-1z"/><path style="opacity:.2;fill:#f4f4f7" d="M3 4c-1.108 0-2 .892-2 2v1c0-1.108.892-2 2-2h26c1.108 0 2 .892 2 2V6c0-1.108-.892-2-2-2z"/><circle style="fill:#ff8915" cx="20.5" cy="13.5" r="1.5"/><path style="fill:#ff8915" d="M19 9.4v.709c0 .383.316.692.699.692 1.919 0 3.464 1.592 3.501 3.5a.7.7 0 0 0 .699.699h.699l.01-.691c0-2.635-2.104-4.909-4.716-4.909z"/><path style="fill:#ff8915" d="M25.666 14.342a.666.666 0 0 0 .666.658H27l-.004-.725C26.974 10.333 23.791 7 19.863 7H19v.676a.667.667 0 0 0 .666.658c3.31-.005 6.005 2.697 6 6.008z"/><path style="opacity:.1" d="M26 20c-1.108 0-2 .892-2 2v5l7-7z"/><path style="fill:#fafafa" d="M26 19c-1.108 0-2 .892-2 2v5l7-7z"/></svg>

<svg xmlns="http://www.w3.org/2000/svg" width="32" height="32" version="1">
 <rect style="opacity:0.2" width="30" height="22" x="1" y="7" rx="2" ry="2"/>
 <path style="fill:#ff8915" d="M 1,24 V 26 C 1,27.108 1.892,28 3,28 H 29 C 30.108,28 31,27.108 31,26 V 24 L 29,25 H 3 Z"/>
 <rect style="opacity:0.2" width="30" height="22" x="1" y="5" rx="2" ry="2"/>
 <rect style="fill:#f4f4f7" width="30" height="22" x="1" y="4" rx="2" ry="2"/>
 <g style="opacity:0.1">
  <rect width="7" height="7" x="24" y="19" rx="2" ry="2"/>
  <rect width="3" height="3" x="28" y="19"/>
  <rect width="3" height="3" x="24" y="23"/>
 </g>
 <rect style="fill:#ff8915" width="7" height="1" x="4" y="7" ry="0"/>
 <path style="fill:#9c9891" d="M 4,10 V 11 H 12 V 10 Z M 4,13 V 14 H 11 V 13 Z M 4,16 V 17 H 12 V 16 Z M 19,16 V 17 H 24 V 16 Z M 4,19 V 20 H 9 V 19 Z M 19,19 V 20 H 27 V 19 Z M 4,22 V 23 H 12 V 22 Z M 19,22 V 23 H 27 V 22 Z"/>
 <path style="opacity:0.2;fill:#f4f4f7" d="M 3,4 C 1.892,4 1,4.892 1,6 V 7 C 1,5.892 1.892,5 3,5 H 29 C 30.108,5 31,5.892 31,7 V 6 C 31,4.892 30.108,4 29,4 Z"/>
 <circle style="fill:#ff8915" cx="20.5" cy="13.5" r="1.5"/>
 <path style="fill:#ff8915" d="M 19,9.4 V 10.109 C 19,10.492 19.316,10.801 19.699,10.801 V 10.801 C 21.618,10.801 23.163,12.393 23.2,14.301 V 14.301 C 23.201,14.687 23.513,15 23.899,15 H 24.598 L 24.608,14.309 C 24.608,11.674 22.504,9.4 19.892,9.4 Z"/>
 <path style="fill:#ff8915" d="M 25.666,14.342 C 25.671,14.707 25.967,15 26.332,15 H 27 L 26.996,14.275 C 26.974,10.333 23.791,7 19.863,7 H 19 V 7.6758 C 19.005,8.0404 19.301,8.3337 19.666,8.334 22.976,8.3289 25.671,11.031 25.666,14.342 Z"/>
 <path style="opacity:0.1" d="M 26,20 C 24.892,20 24,20.892 24,22 V 27 L 31,20 Z"/>
 <path style="fill:#fafafa" d="M 26,19 C 24.892,19 24,19.892 24,21 V 26 L 31,19 Z"/>
</svg>
